X:26
T:The King of Denmarks Galiard (11)
R:Gaillarde
C:Iohn (John) Dowland
H:
N:
B:
O:Angleterre - England
A:
Z:<eric.forgeot@caramail.com> -- http://anamnese.fr.st
M:3/4
L:1/4
Q:1/4=120
K:F
%%staves 1 {(2 3) (4 5)}
V:1
AAA | A G/^F/E/G/ | ^F E/D/E | D3 | AdA | A G/^F/E/G/ |
^F E/D/E | D3 | cfc | c>B A/G/ | F/A/G>G | F3 |
f/c/ cc | c>B A/>G/ | F/A/ G>G | F3 | A/>c/ =B/>d/ ^c/>e/ | d>A F/A/ |
G/F/E/D/ E | D3 | A/>c/ =B/>d/ ^c/>e/ | dfD | F/>G/ A/D/ E | HD3 :|
V:2
[A,D][A,2D2] | [A,3D3] | DD^C | D3 | [A,D][A,2D2] | [A,3D3] |
DD^C | D3 | AA2 | A>GF-|F/ F F/ E | F3 |
AA2 | A>GF-|F/ F F/ E | F3 | F/A/ G/G/4F/4 E/A/-|A/F/4E/4 F/F/ D/F/ |
E/D/ -D/^C/4=B,/4 C | D3 | F/F/ G/G/ A/A/4G/4 | A/F/4E/4 D/D/ F/>G/ | A/F/- F/4E/4D/- D/^C/ | HD3 :|
V:3
K:F treble
^F,3 | ^F,3 | A,A,A, | A,A,/G,/^F | ^F,3 | ^F,3 |
A,A,A, | A,A,2 | =FF2 | F2 | F2 C-|C C-C/B,/ | A,3 |
FF2 | F2C-|C C-C/B,/ | A,3 | F/F/ D E/E/ | FDD |
B,
V:4
K:F bass
%%MIDI transpose -12
dd2 | d3 | xA2 | dD2 | dd2 |
V:5
K:F bass
%%MIDI transpose -12
DD2 | D3 | D/d/e/^f/g/e/ | ^f/g/ D2 |

